X: 1
T:Roaring Mary
R:reel
Z:id:hn-reel-362
M:C|
K:D
DF~F2 AF~F2|ABdf g2fe|d2dB ABde|fede fe~e2|
DF~F2 AF~F2|ABdf g2fe|d2dB ABdf|1 afeg fd~d2:|2 afeg fddf||
|:~a3g ~f3e|d2dA BAFA|dg~g2 bg~g2|af~f2 ge~e2|
DF~F2 AF~F2|ABdf g2fe|d2dB ABdf|1 afeg fddf:|2 afeg fd~d2||
